X:1
T:Tranquebar, 87.87
T:Tranquebar, 87.87
T:Horace Hills, Jr., 1903
T:Public Domain Courtesy of the Cyber Hymnal™
C:Horace Hills, Jr., 1903
Z:Public Domain
Z:Courtesy of the Cyber Hymnal™
%%score ( 1 2 ) 3
L:1/8
Q:1/4=95
M:3/4
K:Ab
V:1 treble 
V:2 treble 
V:3 bass 
V:1
 [Ec][DB] | [DB]2 [CA]2 [EA][EG] | [EG]2 [DF]2 [FA][DF] | E[EA] [Ec]2 [=DA]2 | [EB]4 [Ec][DB] | %5
 [DB]2 [CA]2 [EA][=EG] | [=EG]2 F2 [FA][DF] | E[Ec] [Ed]2 [DG]2 | [CA]4 |] %9
V:2
 x2 | x6 | x6 | E x5 | x6 | x6 | x2 F2 x2 | E x5 | x4 |] %9
V:3
 [A,,A,][E,G,] | [E,G,]2 [F,A,]2 [C,A,][C,A,] | [D,A,]2 [D,A,]2 [D,A,][D,A,] | %3
 [C,A,][C,A,] [A,,A,]2 [F,A,]2 | [E,G,]4 [A,,A,][E,G,] | [E,G,]2 [F,A,]2 [C,A,][C,B,] | %6
 [D,B,]2 [D,A,]2 [D,A,][D,A,] | [E,C][E,A,] [E,G,]2 [E,B,]2 | [A,,A,]4 |] %9

